!!!OTL: 423. Amor auf der Meſſe.
!!!ARE: Europa, Mitteleuropa, Deutschland; France, Elsass
!!!SCT: B0423
!!!TXL: @@DE
!!!YEM: Copyright 1995, estate of Helmut Schaffrath.
**kern	**text
*ICvox	*
*Ivox	*
*clefG2	*
*M4/4	*
*met(c)	*
*k[f#c#]	*
*D:	*
=1	=1
!LO:TX:a:t=Nicht zu langsam.	!
{4.d	Jüngſt
8d	in
8.f#	dem
16f#	ver-
8e	-floß-
8d	-nen
=2	=2
2a	Jahr
4r}	.
{4f#	ʒur
=3	=3
4.a	Leip-
8f#	-ʒig
8e	O-
8g	-ſter-
8c#	-meſ-
8e	-ſe
=4	=4
2d	war.
2r}	.
=5	=5
{4.e	Da
8e	ſtand
8.e	auf
16e	des
8a	Marktes
8e	.
=6	=6
4f#	Mit-
4e	-te
4r}	.
{8a	Amors
8a	.
=7	=7
4.g#	ſei-
8g#	-ne
(4g#	Krä-
16aqqL	.
16g#qqJ	.
8f#)	.
8g#	-mer-
=8	=8
4b	-hüt-
4a	-te
4r}	.
{8a	und
8a	bot
=9	=9
4.b	freundlich
8b	.
4cc#	je-
4a	-der-
=10	=10
2dd}	-mann
{4dd	Her-
4b	-ʒen
=11	=11
4.a	ʒum
8f#	Ver-
4g	-kau-
4e	-fe
=12	=12
2d	an.
2r}	.
==	==
!!!AGN: Scherz -, Liebes - Lied, national
!!!GTL: Liebeslieder - Liebeslust
!!!ONB: ESAC (Essen Associative Code) Database: BOEHME
!!!AMT: simple quadruple
!!!AIN: vox
!!!EED: Helmut Schaffrath
!!!EEV: 1.0
!!@@COMMENT:"Mündlich aus dem Elſaß (Lembach) 1889. War wohl ein ſeit 1871 eingeführter Drehorgel-
!!geſang, der noch durch Volksmund (ſ. die dopp. Beſitʒanʒeige: "Amors ſeine") abgeändert worden iſt."
!!@@END:
!!!URL-scan: https://archive.org/details/BoehmeVtLieder1895/page/n345/mode/2up
!!!ENC: Anna Maria Matuszewska
!!!EEV: 2024/08/07
*-	*-
